icons/svg/amenity/dry_cleaning.svg

<?xml version="1.0" encoding="UTF-8" standalone="no"?>
<!-- Created with Inkscape (http://www.inkscape.org/) -->

<svg
   xmlns:dc="http://purl.org/dc/elements/1.1/"
   xmlns:cc="http://creativecommons.org/ns#"
   xmlns:rdf="http://www.w3.org/1999/02/22-rdf-syntax-ns#"
   xmlns:svg="http://www.w3.org/2000/svg"
   xmlns="http://www.w3.org/2000/svg"
   xmlns:sodipodi="http://sodipodi.sourceforge.net/DTD/sodipodi-0.dtd"
   xmlns:inkscape="http://www.inkscape.org/namespaces/inkscape"
   version="1.0"
   width="580"
   height="580"
   id="svg2"
   sodipodi:version="0.32"
   inkscape:version="0.91 r"
   sodipodi:docname="cannon.svg"
   inkscape:output_extension="org.inkscape.output.svg.inkscape">
  <metadata
     id="metadata10">
    <rdf:RDF>
      <cc:Work
         rdf:about="">
        <dc:format>image/svg+xml</dc:format>
        <dc:type
           rdf:resource="http://purl.org/dc/dcmitype/StillImage" />
        <cc:license
           rdf:resource="http://web.resource.org/cc/PublicDomain" />
        <dc:language>en</dc:language>
        <dc:title />
      </cc:Work>
    </rdf:RDF>
  </metadata>
  <sodipodi:namedview
     inkscape:window-height="1015"
     inkscape:window-width="1668"
     inkscape:pageshadow="2"
     inkscape:pageopacity="0.0"
     guidetolerance="10.0"
     gridtolerance="10.0"
     objecttolerance="10.0"
     borderopacity="1.0"
     bordercolor="#666666"
     pagecolor="#ffffff"
     id="base"
     showgrid="false"
     inkscape:zoom="0.56324711"
     inkscape:cx="167.92455"
     inkscape:cy="161.19759"
     inkscape:window-x="0"
     inkscape:window-y="0"
     inkscape:current-layer="svg2"
     inkscape:window-maximized="0" />
  <defs
     id="defs4">
    <inkscape:perspective
       sodipodi:type="inkscape:persp3d"
       inkscape:vp_x="0 : 290 : 1"
       inkscape:vp_y="0 : 1000 : 0"
       inkscape:vp_z="580 : 290 : 1"
       inkscape:persp3d-origin="290 : 193.33333 : 1"
       id="perspective12" />
    <inkscape:perspective
       id="perspective2539"
       inkscape:persp3d-origin="16 : 10.666667 : 1"
       inkscape:vp_z="32 : 16 : 1"
       inkscape:vp_y="0 : 1000 : 0"
       inkscape:vp_x="0 : 16 : 1"
       sodipodi:type="inkscape:persp3d" />
    <inkscape:perspective
       id="perspective2550"
       inkscape:persp3d-origin="372.04724 : 350.78739 : 1"
       inkscape:vp_z="744.09448 : 526.18109 : 1"
       inkscape:vp_y="0 : 1000 : 0"
       inkscape:vp_x="0 : 526.18109 : 1"
       sodipodi:type="inkscape:persp3d" />
    <inkscape:perspective
       id="perspective2563"
       inkscape:persp3d-origin="372.04724 : 350.78739 : 1"
       inkscape:vp_z="744.09448 : 526.18109 : 1"
       inkscape:vp_y="0 : 1000 : 0"
       inkscape:vp_x="0 : 526.18109 : 1"
       sodipodi:type="inkscape:persp3d" />
  </defs>
  <g
     id="g1327">
    <path
       d="M 66.275,1.768 C 24.94,1.768 1.704,23.139 1.704,66.804 L 1.704,516.927 C 1.704,557.771 22.598,579.156 63.896,579.156 L 515.92,579.156 C 557.227,579.156 578.149,558.84 578.149,516.927 L 578.149,66.804 C 578.149,24.203 557.227,1.768 514.627,1.768 C 514.624,1.768 66.133,1.625 66.275,1.768 z"
       style="fill:#111111;stroke:#eeeeee;stroke-width:3.40799999"
       id="path1329" />
  </g>
  <path
     inkscape:connector-curvature="0"
     style="fill:#ffffff;fill-opacity:1;stroke:none"
     d="m 128.42578,49.861331 0,480.226559 323.14649,0.0508 0,-256.07422 c -2.44489,0.12936 -4.9053,0.19727 -7.38086,0.19727 -10.5696,0 -20.87282,-1.19914 -30.78516,-3.45899 2.3084,9.573 3.53906,19.56582 3.53906,29.84766 0,70.11835 -56.8809,126.94727 -126.94531,126.94727 -70.08238,0 -126.94922,-56.82892 -126.94922,-126.94727 0,-70.11837 56.86684,-126.94531 126.94922,-126.94531 7.1326,0 14.12421,0.59856 20.9375,1.73047 -3.92432,-12.8227 -6.04492,-26.41181 -6.04492,-40.47266 0,-31.97291 10.93242,-61.520237 29.23437,-85.101559 l -205.70117,0 z m 42.69336,20.09961 94.97461,0 c 14.03065,0 25.59375,11.565043 25.59375,25.595703 l 0,43.410156 c 0,14.03066 -11.5631,25.5957 -25.59375,25.5957 l -94.97461,0 c -14.03066,0 -25.5957,-11.56504 -25.5957,-25.5957 l 0,-43.410156 c 0,-14.03066 11.56504,-25.595703 25.5957,-25.595703 z m 0,17.257812 c -4.76879,0 -8.33789,3.569101 -8.33789,8.337891 l 0,43.410156 c 0,4.76879 3.5691,8.33789 8.33789,8.33789 l 94.97461,0 c 4.76878,0 8.33594,-3.5691 8.33594,-8.33789 l 0,-43.410156 c 0,-4.76879 -3.56716,-8.337891 -8.33594,-8.337891 l -94.97461,0 z m 199.35742,52.570307 c 0.019,0.26268 0.0336,0.52645 0.0527,0.78906 l 0,-0.77343 c -0.0176,-0.005 -0.0351,-0.0105 -0.0527,-0.0156 z M 290,196.12891 c -57.72761,0 -104.54102,46.81146 -104.54102,104.53906 0,57.7276 46.81341,104.52148 104.54102,104.52148 57.70961,0 104.53711,-46.81146 104.53711,-104.53906 0,-13.66968 -2.62994,-26.72403 -7.4043,-38.69141 -27.86735,-12.6224 -50.92102,-34.17145 -65.45898,-60.9375 -9.99291,-3.17461 -20.63262,-4.89257 -31.67383,-4.89257 z m 0,17.98437 c 47.71069,0 86.55469,38.82601 86.55469,86.55469 0,47.72868 -38.844,86.53711 -86.55469,86.53711 -47.7107,0 -86.53906,-38.844 -86.53906,-86.55469 0,-47.7107 38.82836,-86.53711 86.53906,-86.53711 z"
     id="path5" />
  <path
     style="color:#000000;font-style:normal;font-variant:normal;font-weight:normal;font-stretch:normal;font-size:medium;line-height:normal;font-family:sans-serif;text-indent:0;text-align:start;text-decoration:none;text-decoration-line:none;text-decoration-style:solid;text-decoration-color:#000000;letter-spacing:normal;word-spacing:normal;text-transform:none;direction:ltr;block-progression:tb;writing-mode:lr-tb;baseline-shift:baseline;text-anchor:start;white-space:normal;clip-rule:nonzero;display:inline;overflow:visible;visibility:visible;opacity:1;isolation:auto;mix-blend-mode:normal;color-interpolation:sRGB;color-interpolation-filters:linearRGB;solid-color:#000000;solid-opacity:1;fill:#ffffff;fill-opacity:1;fill-rule:nonzero;stroke:none;stroke-width:18.45700073;stroke-linecap:butt;stroke-linejoin:miter;stroke-miterlimit:4;stroke-dasharray:none;stroke-dashoffset:0;stroke-opacity:1;marker:none;color-rendering:auto;image-rendering:auto;shape-rendering:auto;text-rendering:auto;enable-background:accumulate"
     d="m 444.19097,19.11642 c -63.87119,6e-6 -115.84766,51.974515 -115.84766,115.84569 1e-5,63.87119 51.97647,115.84765 115.84766,115.84766 63.87119,0 115.8457,-51.97647 115.8457,-115.84766 0,-63.87118 -51.97451,-115.84569 -115.8457,-115.84569 z m 0,18.457032 c 53.89629,0 97.38867,43.492379 97.38867,97.388658 0,53.89629 -43.49238,97.39063 -97.38867,97.39063 -53.89629,-1e-5 -97.39062,-43.49434 -97.39063,-97.39063 0,-53.896279 43.49434,-97.388653 97.39063,-97.388658 z m -50.21094,24.054687 0,146.667961 37.82227,0 0,-50.88672 24.95117,0 c 18.66506,0 32.975,-4.12504 42.92969,-12.37695 10.02018,-8.31741 15.03125,-20.17203 15.03125,-35.5625 0,-15.324989 -5.01107,-27.113319 -15.03125,-35.365228 -9.95469,-8.317408 -24.26463,-12.476563 -42.92969,-12.476563 l -62.77344,0 z m 37.82227,27.408202 20.92383,0 c 7.33503,0 12.99915,1.76816 16.99414,5.30469 3.99495,3.53654 5.99414,8.579759 5.99414,15.128899 0,6.54913 -1.99919,11.62452 -5.99414,15.22656 -3.99499,3.53653 -9.65911,5.30468 -16.99414,5.30468 l -20.92383,0 0,-40.964829 z"
     id="path4209"
     inkscape:connector-curvature="0" />
</svg>

<svg width="580" height="580" viewBox="0 0 580 580" fill="none" xmlns="http://www.w3.org/2000/svg">
<g clip-path="url(#clip0)">
<path d="M66.2751 1.76802C24.9401 1.76802 1.7041 23.139 1.7041 66.804V516.927C1.7041 557.771 22.5981 579.156 63.8961 579.156H515.92C557.227 579.156 578.149 558.84 578.149 516.927V66.804C578.149 24.203 557.227 1.76802 514.627 1.76802C514.624 1.76802 66.1331 1.62502 66.2751 1.76802Z" fill="#111111" stroke="#EEEEEE" stroke-width="3.408"/>
<path d="M128.426 49.8613V530.088L451.572 530.139V274.064C449.127 274.194 446.667 274.262 444.191 274.262C433.622 274.262 423.319 273.063 413.406 270.803C415.715 280.376 416.945 290.369 416.945 300.65C416.945 370.769 360.064 427.598 290 427.598C219.918 427.598 163.051 370.769 163.051 300.65C163.051 230.532 219.918 173.705 290 173.705C297.133 173.705 304.124 174.304 310.938 175.436C307.013 162.613 304.893 149.024 304.893 134.963C304.893 102.99 315.825 73.4427 334.127 49.8613H128.426V49.8613ZM171.119 69.9609H266.094C280.124 69.9609 291.688 81.526 291.688 95.5566V138.967C291.688 152.997 280.124 164.562 266.094 164.562H171.119C157.088 164.562 145.523 152.997 145.523 138.967V95.5566C145.523 81.526 157.088 69.9609 171.119 69.9609V69.9609ZM171.119 87.2187C166.35 87.2187 162.781 90.7878 162.781 95.5566V138.967C162.781 143.736 166.35 147.305 171.119 147.305H266.094C270.863 147.305 274.43 143.736 274.43 138.967V95.5566C274.43 90.7878 270.863 87.2187 266.094 87.2187H171.119V87.2187ZM370.477 139.789C370.496 140.052 370.51 140.316 370.529 140.578V139.805C370.512 139.8 370.494 139.794 370.477 139.789V139.789ZM290 196.129C232.272 196.129 185.459 242.94 185.459 300.668C185.459 358.396 232.272 405.189 290 405.189C347.71 405.189 394.537 358.378 394.537 300.65C394.537 286.981 391.907 273.926 387.133 261.959C359.265 249.337 336.212 227.788 321.674 201.021C311.681 197.847 301.041 196.129 290 196.129V196.129ZM290 214.113C337.711 214.113 376.555 252.939 376.555 300.668C376.555 348.397 337.711 387.205 290 387.205C242.289 387.205 203.461 348.361 203.461 300.65C203.461 252.94 242.289 214.113 290 214.113Z" fill="white"/>
<path d="M444.191 19.1165C380.32 19.1165 328.343 71.091 328.343 134.962C328.343 198.833 380.32 250.81 444.191 250.81C508.062 250.81 560.037 198.833 560.037 134.962C560.037 71.091 508.062 19.1165 444.191 19.1165V19.1165ZM444.191 37.5735C498.087 37.5735 541.58 81.0659 541.58 134.962C541.58 188.858 498.087 232.353 444.191 232.353C390.295 232.353 346.8 188.858 346.8 134.962C346.8 81.0659 390.295 37.5735 444.191 37.5735V37.5735ZM393.98 61.6282V208.296H431.802V157.409H456.753C475.418 157.409 489.728 153.284 499.683 145.032C509.703 136.715 514.714 124.86 514.714 109.47C514.714 94.145 509.703 82.3566 499.683 74.1047C489.728 65.7873 475.418 61.6282 456.753 61.6282H393.98V61.6282ZM431.802 89.0364H452.726C460.061 89.0364 465.725 90.8045 469.72 94.3411C473.715 97.8776 475.714 102.921 475.714 109.47C475.714 116.019 473.715 121.094 469.72 124.697C465.725 128.233 460.061 130.001 452.726 130.001H431.802V89.0364V89.0364Z" fill="white"/>
</g>
<defs>
<clipPath id="clip0">
<path d="M0 0H580V580H0V0Z" fill="white"/>
</clipPath>
</defs>
</svg>
